X:1257
T:Dillon Brown
M:C|
L:1/8
R:Reel
B:O'Neill's 1257
N:Collected by Miss Kennedy
Z:Transcribed by Trish O'Neil
K:G
BGAG EGDG|BGAB cedc|BGAG EGDE|GBAG EGG2 :|
Bddf egdc|Bddf efg2|Bddf egdc|BGAG EGG2|
Bddf egdc|Bddf efg2|agfge dcBd|cABG EGG2|]
